X: 5
T: Klaphopsa
S:HO
R:Hopsa
O:Denmark
S:Arent Storm <arent@dse.nl> abcusers 2003-7-25
M:4/4
K:A
a2e2 a2e2 | dcdf ecA2 | a2e2 a2e2 | dcdBA2z2 ::\
Acec Acec | d2f2 f4 | eaga bagf | e2a2a4 |\
Acec Acec | d2f2 f4 | eagf edcB | A2A2 A2z2 :|**
